img/info.svg

<svg fill="none" height="800" viewBox="0 0 24 24" width="800" xmlns="http://www.w3.org/2000/svg">
    <path d="m12 11v5m0 5c-4.97056 0-9-4.0294-9-9 0-4.97056 4.02944-9 9-9 4.9706 0 9 4.02944 9 9 0 4.9706-4.0294 9-9 9zm.0498-13v.1l-.0996.0002v-.1002z"
          stroke="#ffffff" stroke-linecap="round" stroke-linejoin="round" stroke-width="2"/>
</svg>

<?xml version="1.0" encoding="utf-8"?>
<svg width="800px" height="800px" viewBox="0 0 24 24" fill="none" xmlns="http://www.w3.org/2000/svg">
    <g id="Warning / Info">
        <path id="Vector"
              d="M12 11V16M12 21C7.02944 21 3 16.9706 3 12C3 7.02944 7.02944 3 12 3C16.9706 3 21 7.02944 21 12C21 16.9706 16.9706 21 12 21ZM12.0498 8V8.1L11.9502 8.1002V8H12.0498Z"
              stroke="#000000" stroke-width="2" stroke-linecap="round" stroke-linejoin="round"/>
    </g>
</svg>
